packages/sources/icons/src/vitamix/question-fill.svg

<svg width="16" height="16" viewBox="0 0 16 16" fill="none" xmlns="http://www.w3.org/2000/svg">
<path fill-rule="evenodd" clip-rule="evenodd" d="M8 14.6667C4.318 14.6667 1.33334 11.682 1.33334 8.00001C1.33334 4.31801 4.318 1.33334 8 1.33334C11.682 1.33334 14.6667 4.31801 14.6667 8.00001C14.6667 11.682 11.682 14.6667 8 14.6667ZM7.33334 10V11.3333H8.66667V10H7.33334ZM10.3032 6.33099C10.4701 7.47542 9.77405 8.56959 8.6667 8.90334V9.33334H7.33337V8.33334C7.33337 7.96515 7.63185 7.66668 8.00004 7.66668C8.5268 7.66664 8.96322 7.25798 8.99782 6.73235C9.03241 6.20672 8.65331 5.74438 8.13109 5.67531C7.60887 5.60624 7.12262 5.95413 7.01937 6.47068L5.71137 6.20868C5.92995 5.11808 6.88775 4.33326 8.00004 4.33334C9.15658 4.33684 10.1362 5.18656 10.3032 6.33099Z" fill="#001018"/>
</svg>

<svg width="16" height="16" fill="none" xmlns="http://www.w3.org/2000/svg"><path fill-rule="evenodd" clip-rule="evenodd" d="M8 14.667A6.667 6.667 0 1 1 8 1.334a6.667 6.667 0 0 1 0 13.333zM7.333 10v1.333h1.334V10H7.333zm2.97-3.669a2.335 2.335 0 0 1-1.636 2.572v.43H7.333v-1c0-.368.299-.666.667-.666a1 1 0 1 0-.98-1.196l-1.31-.262A2.334 2.334 0 0 1 8 4.333a2.335 2.335 0 0 1 2.303 1.998z" fill="#001018"/></svg>
